file/bmw.svg

<svg clip-rule="evenodd" fill-rule="evenodd" stroke-linecap="round" stroke-linejoin="round" stroke-miterlimit="1.41421" viewBox="0 0 560 400" xmlns="http://www.w3.org/2000/svg"><g transform="matrix(1.0449 0 0 1.0449 178.955 98.5868)"><path d="m192.405 97.056c0-52.854-42.845-95.701-95.701-95.701-52.855 0-95.704 42.847-95.704 95.701s42.849 95.699 95.704 95.699c52.856 0 95.701-42.845 95.701-95.699z" fill="#fff"/><path d="m192.405 97.056c0-52.854-42.845-95.701-95.701-95.701-52.855 0-95.704 42.847-95.704 95.701s42.849 95.699 95.704 95.699c52.856 0 95.701-42.845 95.701-95.699z" fill="none" stroke="#211e1e" stroke-width="7.98"/><path d="m190.096 97.056c0-51.58-41.813-93.392-93.392-93.392-51.58 0-93.395 41.812-93.395 93.392 0 51.578 41.815 93.392 93.395 93.392 51.579 0 93.392-41.814 93.392-93.392z" fill="#030404"/><path d="m49.136 49.063c-.695.868-1.388 1.735-2.082 2.602-1.906 2.382-3.818 4.766-5.724 7.148-.009.01-.06.09-.074.08-.098-.079-.196-.157-.294-.235-.52-.417-1.037-.831-1.556-1.247-.9-.72-1.801-1.441-2.7-2.16 1.731-2.162 3.461-4.323 5.191-6.485.843-1.053 1.686-2.107 2.528-3.159.603-.754 1.365-1.289 2.368-1.321 1.202-.04 2.25.663 2.761 1.728.427 1.034.283 2.173-.418 3.049zm-16.228 3.146c-1.097-.879-2.196-1.759-3.294-2.637-.419-.335-.837-.671-1.257-1.006-.01-.011.43-.552.463-.588 2.044-2.555 4.091-5.112 6.136-7.666.539-.674 1.023-1.393 1.851-1.736 1.132-.466 2.461-.167 3.282.736.662.731.881 1.726.668 2.678-.244.847-.844 1.47-1.383 2.141-1.075 1.345-2.153 2.691-3.23 4.036-1.078 1.348-2.157 2.697-3.236 4.042zm23.379-7.647c-.357-2.495-1.86-4.591-4.166-5.64-2.312-1.05-5-.655-7.039.789-.166.119-.32.26-.477.387.337-1.154.441-2.317.153-3.5-.28-1.152-.886-2.217-1.735-3.045-1.73-1.687-4.353-2.242-6.621-1.394-1.066.397-2.017 1.082-2.729 1.972-.405.505-.81 1.012-1.214 1.52-2.118 2.643-4.232 5.284-6.347 7.928-1.819 2.268-3.635 4.537-5.45 6.806-.121.149-.239.299-.359.45-.01.008.233.192.249.205.706.565 1.411 1.128 2.115 1.694 2.665 2.133 5.331 4.267 7.998 6.403 2.636 2.113 5.277 4.226 7.918 6.341.674.538 1.344 1.076 2.02 1.614.027.025.184.181.212.148.133-.168.267-.335.399-.5 1.812-2.265 3.624-4.527 5.435-6.79 2.172-2.711 4.343-5.422 6.514-8.134 1.121-1.4 2.36-2.72 2.893-4.475.273-.903.317-1.847.231-2.779z" fill="#fff"/><path d="m155.075 97.056c0-32.238-26.135-58.37-58.371-58.37-32.238 0-58.372 26.132-58.372 58.37 0 32.237 26.134 58.37 58.372 58.37 32.236 0 58.371-26.133 58.371-58.37z" fill="#fff"/><path d="m96.702 41.644c-30.249.786-54.628 25.163-55.411 55.412h55.411z" fill="#009ad9"/><path d="m96.702 152.47c30.254-.788 54.629-25.164 55.416-55.414h-55.416z" fill="#009ad9"/><g fill="#fff"><path d="m158.971 33.18-4.865-4.518-15.792 20.746 4.863 4.515 17.319-7.943-11.541 15.16 3.346 5.736 23.695-10.874-3.343-5.734-13.675 6.273 9.721-12.767-4.255-5.315-14.586 6.691z"/><path d="m88.111 17.28 6.159 17.512h4.865l6.16-17.512.65 17.512 6.811.973-.974-26.266-8.755-.975-6.323 18.485-6.326-18.485-8.756.975-.972 26.266 6.813-.973z"/></g></g></svg>

<?xml version="1.0" encoding="UTF-8" standalone="no"?>
<!DOCTYPE svg PUBLIC "-//W3C//DTD SVG 1.1//EN" "http://www.w3.org/Graphics/SVG/1.1/DTD/svg11.dtd">
<svg width="100%" height="100%" viewBox="0 0 560 400" version="1.1" xmlns="http://www.w3.org/2000/svg" xmlns:xlink="http://www.w3.org/1999/xlink" xml:space="preserve" xmlns:serif="http://www.serif.com/" style="fill-rule:evenodd;clip-rule:evenodd;stroke-linecap:round;stroke-linejoin:round;stroke-miterlimit:1.41421;">
    <g transform="matrix(1.0449,0,0,1.0449,178.955,98.5868)">
        <path d="M192.405,97.056C192.405,44.202 149.56,1.355 96.704,1.355C43.849,1.355 1,44.202 1,97.056C1,149.91 43.849,192.755 96.704,192.755C149.56,192.755 192.405,149.91 192.405,97.056Z" style="fill:white;"/>
        <path d="M192.405,97.056C192.405,44.202 149.56,1.355 96.704,1.355C43.849,1.355 1,44.202 1,97.056C1,149.91 43.849,192.755 96.704,192.755C149.56,192.755 192.405,149.91 192.405,97.056Z" style="fill:none;stroke:rgb(33,30,30);stroke-width:7.98px;"/>
        <path d="M190.096,97.056C190.096,45.476 148.283,3.664 96.704,3.664C45.124,3.664 3.309,45.476 3.309,97.056C3.309,148.634 45.124,190.448 96.704,190.448C148.283,190.448 190.096,148.634 190.096,97.056Z" style="fill:rgb(3,4,4);"/>
        <path d="M49.136,49.063C48.441,49.931 47.748,50.798 47.054,51.665C45.148,54.047 43.236,56.431 41.33,58.813C41.321,58.823 41.27,58.903 41.256,58.893C41.158,58.814 41.06,58.736 40.962,58.658C40.442,58.241 39.925,57.827 39.406,57.411C38.506,56.691 37.605,55.97 36.706,55.251C38.437,53.089 40.167,50.928 41.897,48.766C42.74,47.713 43.583,46.659 44.425,45.607C45.028,44.853 45.79,44.318 46.793,44.286C47.995,44.246 49.043,44.949 49.554,46.014C49.981,47.048 49.837,48.187 49.136,49.063ZM32.908,52.209C31.811,51.33 30.712,50.45 29.614,49.572C29.195,49.237 28.777,48.901 28.357,48.566C28.347,48.555 28.787,48.014 28.82,47.978C30.864,45.423 32.911,42.866 34.956,40.312C35.495,39.638 35.979,38.919 36.807,38.576C37.939,38.11 39.268,38.409 40.089,39.312C40.751,40.043 40.97,41.038 40.757,41.99C40.513,42.837 39.913,43.46 39.374,44.131C38.299,45.476 37.221,46.822 36.144,48.167C35.066,49.515 33.987,50.864 32.908,52.209ZM56.287,44.562C55.93,42.067 54.427,39.971 52.121,38.922C49.809,37.872 47.121,38.267 45.082,39.711C44.916,39.83 44.762,39.971 44.605,40.098C44.942,38.944 45.046,37.781 44.758,36.598C44.478,35.446 43.872,34.381 43.023,33.553C41.293,31.866 38.67,31.311 36.402,32.159C35.336,32.556 34.385,33.241 33.673,34.131C33.268,34.636 32.863,35.143 32.459,35.651C30.341,38.294 28.227,40.935 26.112,43.579C24.293,45.847 22.477,48.116 20.662,50.385C20.541,50.534 20.423,50.684 20.303,50.835C20.293,50.843 20.536,51.027 20.552,51.04C21.258,51.605 21.963,52.168 22.667,52.734C25.332,54.867 27.998,57.001 30.665,59.137C33.301,61.25 35.942,63.363 38.583,65.478C39.257,66.016 39.927,66.554 40.603,67.092C40.63,67.117 40.787,67.273 40.815,67.24C40.948,67.072 41.082,66.905 41.214,66.74C43.026,64.475 44.838,62.213 46.649,59.95C48.821,57.239 50.992,54.528 53.163,51.816C54.284,50.416 55.523,49.096 56.056,47.341C56.329,46.438 56.373,45.494 56.287,44.562Z" style="fill:white;"/>
        <path d="M155.075,97.056C155.075,64.818 128.94,38.686 96.704,38.686C64.466,38.686 38.332,64.818 38.332,97.056C38.332,129.293 64.466,155.426 96.704,155.426C128.94,155.426 155.075,129.293 155.075,97.056Z" style="fill:white;"/>
        <path d="M96.702,41.644C66.453,42.43 42.074,66.807 41.291,97.056L96.702,97.056L96.702,41.644Z" style="fill:rgb(0,154,217);"/>
        <path d="M96.702,152.47C126.956,151.682 151.331,127.306 152.118,97.056L96.702,97.056L96.702,152.47Z" style="fill:rgb(0,154,217);"/>
        <path d="M158.971,33.18L154.106,28.662L138.314,49.408L143.177,53.923L160.496,45.98L148.955,61.14L152.301,66.876L175.996,56.002L172.653,50.268L158.978,56.541L168.699,43.774L164.444,38.459L149.858,45.15L158.971,33.18Z" style="fill:white;"/>
        <path d="M88.111,17.28L94.27,34.792L99.135,34.792L105.295,17.28L105.945,34.792L112.756,35.765L111.782,9.499L103.027,8.524L96.704,27.009L90.378,8.524L81.622,9.499L80.65,35.765L87.463,34.792L88.111,17.28Z" style="fill:white;"/>
    </g>
</svg>
